X: 461
T: Charleston No.1
C:Willie Narmour, 1929
B: jims roots
M:C
L:1/16
Q: 1/4=100
K:C
V:1 
cd | "C"ecGE CDEF GAcA a2(g2 | c')age aged "G"{_e}[=ee]dcA "C"c2cd |
ecGE CDEF GAcA a2(g2 | c')age aged "G"{_e}[=ee]dcA "C"c2c2 ||
"C"!slide![e4e] !slide![e4e] e2a2 gedc | [M:5/4]AG"Am"ED E{G}[A2A]B A2G2 ECDC A,CC2 ||
"C"{_E}[=E4C] C4 {_E}[=E3C]C DCA,B, | C2c2 AGEC "G"DCA,G, "C"A,C3 |
{_E}[=E4C] [C4E] {_E}[=E3C]C DCA,B, | [M:5/4]C2c2 AGEC "G"DCA,G, "C"A,C3 Cz2 |]
% abcbook-tune_id 6298c2452071f546be6c5003


% abcbook-boost 0
% abcbook-tablature 
% abcbook-transpose 
% abcbook-lastupdated 1654178373663
% abcbook-soundfonts 
% abcbook-repeats 1


